!!!COM: Bach, Johann Sebastian
!!!CDT: 1685/3//-1750/7/28/
!!!OTL@@DE: Erstanden ist der heil'ge Christ
!!!AGN: 4-Part Chorale
!!!SCT: BH 176
!!!SCT: BWV 306
**harm	**root	**kern	**kern	**kern	**kern
!	!	!bass	!tenor	!alto	!soprno
*	*Iorgan	*Iorgan	*Iorgan	*Iorgan	*Iorgan
*M3/4	*M3/4	*M3/4	*M3/4	*M3/4	*M3/4
*MM60	*MM60	*MM60	*MM60	*MM60	*MM60
*k[b-e-]	*k[b-e-]	*k[b-e-]	*k[b-e-]	*k[b-e-]	*k[b-e-]
*B-:	*B-:	*B-:	*B-:	*B-:	*B-:
I	4FF	4BB-	4d	4f	4b-
=1	=1	=1	=1	=1	=1
I	4.FF	4.B-	8d	4f	4.b-
.	.	.	8e-	.	.
.	.	.	8d	8g	.
vii	8EE	8A	8c	8a	8cc
vi	4DD	4G	4B-	[4b-	8dd
.	.	.	.	.	8ee-
=2	=2	=2	=2	=2	=2
V	2CC	4.F	2c	4b-]	2ff
.	.	.	.	8a	.
.	.	8G	.	8b-	.
Vb	4CC	8A	4f	[4cc	4cc
.	.	8F	.	.	.
=3	=3	=3	=3	=3	=3
I	2FF	4.B-	2f	8cc]	2dd
.	.	.	.	8a	.
.	.	.	.	[2b-	.
.	.	8A	.	.	.
viib/V	4BB	4G	4g	.	4ee
=4	=4	=4	=4	=4	=4
V;	2CC;	2F;	2c;	4b-]	2ff;
.	.	.	.	4a;	.
V7b	4CC	4A	4f	[4cc	4ee-y
=5	=5	=5	=5	=5	=5
I	4FF	4.B-	8f	4cc]	4.dd
.	.	.	8d	.	.
vib	4DD	.	2g	2b-	.
.	.	8A	.	.	8cc
vi	4DD	4G	.	.	8dd
.	.	.	.	.	8ee-
=6	=6	=6	=6	=6	=6
Vb	4CC	4.A	8f	8cc	2ff
.	.	.	8g	8b-	.
Vb	8CC	.	4a	8cc	.
vii7/ii	8FF#	8B	.	[8dd	.
ii	4GG	4c	4g	8dd]	4ee-
.	.	.	.	[8cc	.
=7	=7	=7	=7	=7	=7
vi	4DD	4.G	4g	8cc]	2dd
.	.	.	.	16b-	.
.	.	.	.	16a	.
vi	4DD	.	4d	[4b-	.
.	.	8F	.	.	.
v7c/III	4EE	4E-	4G	8b-]	4cc
.	.	.	.	16a	.
.	.	.	.	16g	.
!!linebreak: 2
=8	=8	=8	=8	=8	=8
III;	2AA;	2D;	2A;	2f#;	2dd;
vi	4DD	4G	4B-	4g	4dd
=9	=9	=9	=9	=9	=9
iii	4AA	8d	4d	4.a	2ff
.	.	8D	.	.	.
iii	4AA	8d	[2f	.	.
.	.	8c	.	8b-	.
V7b	4CC	8B-	.	[4cc	4ee-
.	.	8A	.	.	.
=10	=10	=10	=10	=10	=10
I	4FF	8B-	8f]	4cc]	2dd
.	.	8BB-	8d	.	.
vib	4DD	8B-	8g	4b-	.
.	.	8A	8f	.	.
viioD7/vi	4CC#	8G	4e-	[4a	4cc
.	.	8F#	.	.	.
=11	=11	=11	=11	=11	=11
vi	4DD	4G	8d	4a]	2b-
.	.	.	8B-	.	.
IV	4BB-	4E-	8e-	4g	.
.	.	.	8d	.	.
V	4CC	4F	4c	8f	4a
.	.	.	.	8e-	.
=12	=12	=12	=12	=12	=12
vi;	2DD;	2G;	2B-;	2d;	2b-;
vi	4DD	8G	4d	4g	4b-
.	.	8F	.	.	.
=13	=13	=13	=13	=13	=13
iib	4GG	4.E-	4c	4g	8cc
.	.	.	.	.	8b-
V7d	8CC	.	4f	8a	8cc
Ib	8FF	8D	.	8b-	8dd
!!!ONB1: in beat 3 of measure 13, the tenor pitch is 'd' in
!!!ONB2: Breitkof & Haertel editions, but is 'B-' in the
!!!ONB3: Bach Compendium index incipit.
ii	4GG	4C	8e-	8g	4ee-
.	.	.	8c	8a	.
=14	=14	=14	=14	=14	=14
I	4FF	8BB-	8d	2b-	2dd
.	.	8C	8e-	.	.
Ib	4FF	8D	[4f	.	.
.	.	8E-	.	.	.
V	4CC	4F	8f]	[4a	4cc
.	.	.	8e-	.	.
=15	=15	=15	=15	=15	=15
vi	4DD	8G	4d	4a]	2b-
.	.	8F	.	.	.
IV	4BB-	4E-	8e-	4g	.
.	.	.	8d	.	.
V7	4CC	4F	8c	4f	4a
.	.	.	8e-	.	.
=16	=16	=16	=16	=16	=16
I;	2FF;	2BB-;	2d;	2f;	2b-;
==	==	==	==	==	==
*-	*-	*-	*-	*-	*-
!!chor2scor: -l 2 -s 0.6 -o %b.pmx
!!!YEC: Copyright 1994, David Huron
!!!YEC: Changes/Additions 2001 by Craig Stuart Sapp
!!!YEN: United States of America
!!!SMA: 371 Bach Chorales, edited by Ludwig Erk, C.F. Peters
!!!PDT: 1850, 1865
!!!ONB: Harmony and Root analysis done manually
